icons/person/person-2.svg

<svg width="14" height="14" viewBox="0 0 14 14" fill="none"
    xmlns="http://www.w3.org/2000/svg">
    <path d="M8.85071 8.26389C10.286 8.36471 11.6918 9.08356 12.7032 10.4231L12.9161 10.7229L12.964 10.8127C13.0512 11.028 12.9783 11.2823 12.7775 11.4162C12.5765 11.5502 12.3137 11.5193 12.1486 11.3557L12.0841 11.2776L11.9103 11.0324C11.4903 10.4748 10.9897 10.0491 10.4474 9.75314L10.2433 9.49826C9.82347 9.00494 9.35296 8.59468 8.85071 8.26389Z" fill="green"/>
    <path d="M8.49994 2.49985C9.88065 2.49985 10.9999 3.61914 10.9999 4.99985C10.9999 6.38056 9.88065 7.49985 8.49994 7.49985C8.34847 7.49984 8.20063 7.48367 8.05658 7.45786C8.08254 7.43085 8.10961 7.40473 8.1347 7.3768C8.37963 7.10411 8.56891 6.80075 8.7099 6.48325C9.43882 6.38103 9.99994 5.75694 9.99994 4.99985C9.99994 4.24138 9.43684 3.61596 8.70599 3.51547C8.56429 3.1979 8.3749 2.89442 8.12982 2.62192C8.10486 2.59417 8.07849 2.5677 8.05267 2.54086C8.19785 2.51463 8.3472 2.49985 8.49994 2.49985Z" fill="green"/>
    <circle cx="5.5" cy="4.99985" r="2" stroke="red"/>
    <path d="M1.5 11.0001C3.5 8.00009 7.5 8.00009 9.5 11.0001" stroke="red" stroke-linecap="round"/>
</svg>

<svg xmlns="http://www.w3.org/2000/svg" width="14" height="14" fill="none" viewBox="0 0 14 14"><path fill="green" d="M8.85 8.264c1.436.1 2.842.82 3.853 2.16l.213.299.048.09a.5.5 0 0 1-.815.543l-.065-.078-.174-.246a4.6 4.6 0 0 0-1.463-1.279l-.204-.255a6.6 6.6 0 0 0-1.392-1.234M8.5 2.5a2.5 2.5 0 1 1-.443 4.958q.04-.04.078-.081c.245-.273.434-.576.575-.894a1.499 1.499 0 0 0-.004-2.968 3.4 3.4 0 0 0-.576-.893l-.077-.081q.217-.04.447-.041"/><circle cx="5.5" cy="5" r="2" stroke="red"/><path stroke="red" stroke-linecap="round" d="M1.5 11c2-3 6-3 8 0"/></svg>
